X: 25615
T: Marquis Of Waterford, The
R: hornpipe
M: 4/4
K: Gmajor
EG|AGAB Aceg|aAGA FAEA|D2fe dcBA|(3GAB (3AGF EdcB|
AGAB Aefg|aAGA FAEA|DFBd cBAG|B2A2 A2:|
|:cd|ecac ecdf|ecac ecdf|ecfe dcBA|(3GAB (3AGF EdcB|
AGAB Aefg|aAGA FAdf|ecAc BGEG|B2A2 A2:|
DF|GFGA GBdf|gGFG EGDG|C2ed cBAG|(3FGA (3GFE DcBA|
GFGA Gdef|gGFG EGDG|CEAc BAGF|A2G2 G2:|
|:Bc|dBgB dBce|dBgB dBce|dBed cBAG|(3FGA (3GFE DcBA|
GFGA Gdef|gGFG EGce|dBGB AFDF|A2G2 G2:|
DF|GFGA Gdef|gGFG EGDG|C2ed cBAG|(3FGA (3GFE DcBA|
GFGA Gdef|gGFG EGce|dBGB AFDF|(3GAB G2 G2:|
Bc|dBgB dBce|dBgB dBce|dBed cBAG|(3FGA (3GFE DABc|
dBgB dBce|dBgB dBce|dBGB AFDF|(3GAB G2 G2Bc|
dBgB dBce|dBgB dBce|dBed cBAG|(3FGA (3GFE DcBA|
GFGA Gdef|gGFG EGce|dBGB AFDF|(3GAB G2 G2||

